svgs/sharp-solid/square-root.svg

<svg xmlns="http://www.w3.org/2000/svg" viewBox="0 0 576 512"><!--! Font Awesome Pro 6.6.0 by @fontawesome - https://fontawesome.com License - https://fontawesome.com/license (Commercial License) Copyright 2024 Fonticons, Inc. --><path d="M320 32l-24 0-6.7 23L198.1 367.6 123.6 239.9 114.4 224 96 224l-64 0L0 224l0 64 32 0 45.6 0L180.4 464.1l9.3 15.9 42.4 0 6.7-23L344 96l200 0 32 0 0-64-32 0L320 32z"/></svg>

<svg xmlns="http://www.w3.org/2000/svg" viewBox="0 0 576 512"><!--! Font Awesome Pro 6.4.0 by @fontawesome - https://fontawesome.com License - https://fontawesome.com/license (Commercial License) Copyright 2023 Fonticons, Inc. --><path d="M320 32H296l-6.7 23L198.1 367.6 123.6 239.9 114.4 224H96 32 0v64H32 77.6L180.4 464.1l9.3 15.9H232l6.7-23L344 96H544h32V32H544 320z"/></svg>
